X:1
T:March
T:March
T:BWV anh. 127
T:Johann Sebastian Bach?
C:Johann Sebastian Bach?
%%score 1 2
L:1/8
M:2/2
K:Eb
V:1 treble 
V:2 bass 
V:1
 EG | B2 cdeB g2 | gfed e2 [Ac]2 | [Ac]2 [GB]4 [FA]2 | (3GFE E4 g2 | (3fed dd dfed | %6
 (3edc cc cedc | (3def [df][df][df][df] bd | (3cde [ce][ce][ce][ce] c'e | (3db=a (3gfe (3dcB Tc2 | %10
 B6 :: Bd | f2 edcB _a2 | Ta2 g4 G2 | (3edc (3fed (3gfe ac | Tc2 =B4 GG | =BGdG GFFF | %17
 =BGdF FE ce | gc (3fed Td4 | c6 ed | eB g4 _d2 | T_d2 c4 =d2 | (3efg (3agf (3gfe be | %23
 (3dcB B4 A2 | (3GAB [GB][GB][GB][GB] eG | (3FGA [FA][FA][FA][FA] fA | (3GAB [GB][GB] gBAG | %27
 (3FGA [FA][FA] fAGF | (3Ged (3cBA (3GFE TF2 | E6 :| %30
V:2
 E,2 | G,2 A,F, G,2 E,2 | B,,2 B,2 E,2 A,2 | B,4 B,,4 | E,2 G,F, G,2 E,2 | D,2 B,2 B,,2 B,2 | %6
 F,,2 [F,=A,]2 [F,A,]2 [F,A,]2 | [F,B,]2 [F,B,]2 [F,B,]2 [F,B,]2 | %8
 [F,=A,]2 [F,A,]2 [F,A,]2 [F,A,]2 | B,2 E,2 F,2 F,,2 | B,,2 F,,2 B,,,2 :: B,,2 | %12
 B,,2 C,2 D,2 B,,2 | E,,2 E,D, E,F,E,D, | C,2 D,2 E,2 F,2 | G,,2 G,^F, G,2 G,,2 | %16
 G,,2 G,,2 G,,2 G,,2 | G,,2 G,,2 C,2 C,2 | E,2 A,2 G,2 G,,2 | C,2 C2 _B,A,G,F, | G,2 E,F, G,2 E,2 | %21
 A,,2 A,G, A,2 F,2 | G,2 D,2 E,2 G,2 | B,2 B,,C, D,2 B,,2 | E,2 E,2 E,2 E,,2 | %25
 B,,2 [B,,D,]2 [B,,D,]2 [B,,D,]2 | [B,,E,]2 [B,,-E,][B,,E,] [B,,E,]2 [B,,E,]2 | %27
 [B,,D,]2 [B,,D,]2 [B,,D,]2 [B,,D,]2 | E,2 A,2 B,2 B,,2 | E,2 B,,2 E,,2 :| %30

